X:1
T: Mackworth
C:J. Scott Skinner
R:Strathspey
Q: 128
K:Bb
M:4/4
L:1/16
|:E2|DF3 B3c d4-d3c|B3A B3g fd3 df3|DF3 B3c d4-d3f|((3e2f2g2) ((3c2d2e2) ((3A2B2c2) ((3F2G2E2) |
DF3 B3c d4-d3c|B3A B3g fd3 df3|((3e2f2g2) ((3c2d2e2) ((3d2d2b2) ((3f2d2B2) |((3A2B2c2) ((3F2G2A2) BB,3-B,2g2|
f3B AB3 FB3 DB3|DB,3 F3D B2F2 d2B2|cC3 =B,C3 E2C2 G2E2|c2G2 e2c2 g2f2 =e2_e2|
dB3 AB3 FB3 DB3|DB,3 F3D B2F2 d2B2|((3c2=B2c2) ((3C2=B,2C2) ((3E2D2E2) ((3G2^F2G2) |((3A2g2f2) ((3e2d2c2) dB3-B2:|
